X: 521
T: Zai liushu
L: 1/8
M: 2/4
K: F
c2A c [I:setbarnb 1]| 
f2d f | 
d c A c | 
G4 | 
G G/ F/ D F | 
G2A c | 
G4 | 
f2d f | 
c Ac2 | 
G2G D | 
C4 | 
G G/ G/C2 | 
G G/ G/C2 | 
A> f d c | 
c DF2 | 
G G/ A/ F D | 
C2D F | 
C4 |]

@@@ Tune index: 9395
